assets/imgs/genoma.svg

<svg width="64" height="64" viewBox="0 0 64 64" fill="none" xmlns="http://www.w3.org/2000/svg">
<circle cx="32" cy="32" r="32" fill="#E86C00"/>
<path d="M11.0749 46.4577C9.70847 46.1696 8.43805 45.0839 7.8767 43.7248C7.59602 43.0453 7.5 42.5356 7.5 41.7748C7.5 40.3198 8.03919 39.0789 9.09542 38.1261C10.4102 36.9369 12.301 36.6562 14.2067 37.3727C14.7163 37.5647 15.5657 38.067 15.6765 38.2368C15.7282 38.3181 15.5436 38.6652 14.9527 39.6107L14.1623 40.8811L13.7339 40.6595C12.8771 40.2237 12.1238 40.2163 11.5107 40.6374C10.7056 41.1913 10.6687 42.4913 11.4442 43.0083C11.5772 43.1044 11.7988 43.1782 11.9317 43.1782H12.1828V42.3288V41.4794H13.8817H15.5805V43.9833V46.4798L15.1964 46.5315C14.4504 46.6202 11.5846 46.5685 11.0749 46.4577Z" fill="#FFFDFC"/>
<path d="M16.2452 41.7748V36.9738H18.8304H21.4156V38.1556V39.3374H20.1969H18.9781V39.9652V40.593H19.8275H20.677V41.7748V42.9566H19.8275H18.9781V43.5844V44.2123L20.1821 44.227L21.3786 44.2492L21.4008 45.4162L21.423 46.5758H18.8304H16.2452V41.7748Z" fill="#FFFDFC"/>
<path d="M22.0803 41.7748V36.9738H23.2473H24.407L25.2933 38.5987C25.7808 39.4925 26.2092 40.2237 26.2387 40.2237C26.2683 40.2237 26.2905 39.4999 26.2905 38.6209L26.2757 37.0107L27.7603 36.9886L29.2449 36.9738V41.7748V46.5758H28.004H26.7632L25.9581 45.1355L25.1456 43.6952L25.1234 45.1355L25.1087 46.5758H23.5945H22.0803V41.7748Z" fill="#FFFDFC"/>
<path d="M33.3073 46.4651C32.3471 46.1918 31.4682 45.6083 30.8994 44.8549C30.1608 43.8725 29.8728 43.0083 29.8801 41.7748C29.8801 40.8146 29.9835 40.3788 30.4119 39.4851C30.7813 38.7243 31.6528 37.838 32.3988 37.4687C34.1863 36.5897 36.0624 36.9073 37.4879 38.3329C38.1896 39.0345 38.6254 39.8323 38.81 40.7555C39.2015 42.735 38.4038 44.7662 36.8306 45.8225C36.0402 46.3469 35.5158 46.5094 34.5261 46.5463C33.9425 46.5685 33.5954 46.5389 33.3073 46.4651ZM34.8806 43.0748C35.959 42.6168 35.9516 40.9771 34.8732 40.5044C34.0164 40.1203 33.0858 40.7998 33.0858 41.8044C33.0858 42.772 34.0238 43.4441 34.8806 43.0748Z" fill="#FFFDFC"/>
<path d="M39.5118 41.7748V36.9738H41.0112H42.518L43.0572 38.1556C43.3526 38.8056 43.6185 39.3374 43.6407 39.3374C43.6628 39.3374 43.9287 38.8056 44.2316 38.1556L44.7781 36.9738H46.2775H47.7843V41.7748V46.5758H46.2701H44.756L44.7486 44.2344V41.8856L44.2094 42.9492L43.6702 44.0128L43.2861 43.2816C43.0719 42.8827 42.8282 42.4026 42.7395 42.218L42.577 41.8856L42.5549 44.2344L42.5401 46.5758H41.0259H39.5118V41.7748Z" fill="#FFFDFC"/>
<path d="M48.3235 46.4872C48.3382 46.4355 48.4416 46.0071 48.5524 45.5418C48.8996 44.0055 49.7047 40.4379 50.0814 38.7465C50.2882 37.8306 50.4802 37.0624 50.5098 37.0255C50.5393 36.996 51.4404 36.9812 52.5114 36.9886L54.4614 37.0107L54.5205 37.2693C54.55 37.4096 54.7421 38.3255 54.9489 39.3005C55.1557 40.2754 55.4216 41.5237 55.5398 42.0703C55.658 42.6169 55.9091 43.7839 56.0937 44.6554C56.2784 45.527 56.4409 46.3173 56.463 46.4134L56.5 46.5759L55.1188 46.5611L53.7302 46.5389L53.575 45.8003L53.4273 45.0617L52.4228 45.0395L51.4183 45.0174L51.2632 45.6895C51.1745 46.0662 51.1081 46.4134 51.1081 46.4724C51.1081 46.5611 50.8717 46.5759 49.6973 46.5759C48.5968 46.5759 48.2939 46.5537 48.3235 46.4872ZM52.8807 42.5725C52.8807 42.3805 52.4819 40.6669 52.4376 40.6669C52.4006 40.6669 52.2898 41.1322 52.0092 42.4987C51.9796 42.6538 52.0018 42.6612 52.4302 42.6612C52.7404 42.6612 52.8807 42.6316 52.8807 42.5725Z" fill="#FFFDFC"/>
<path d="M25.5519 34.95C25.5519 34.9352 25.803 34.7653 26.1132 34.5733C26.8518 34.108 27.8564 33.1478 28.4251 32.3427C29.3188 31.0944 29.762 30.1268 30.6853 27.4826C31.3353 25.6065 31.5864 24.9712 31.9853 24.1809C32.2881 23.5826 32.8494 22.6446 32.9085 22.6446C33.0341 22.6446 34.4818 25.9241 34.3932 26.0127C34.3562 26.0496 33.2852 25.6212 32.3324 25.2002C32.096 25.0968 31.8966 25.0377 31.8745 25.0747C31.7637 25.2519 31.3131 26.6036 31.3427 26.6701C31.3574 26.7218 31.8154 26.9286 32.3619 27.128C36.3357 28.6348 38.5959 28.6274 40.0436 27.0911C40.8856 26.19 41.3583 24.89 41.6095 22.7923C41.6759 22.2457 41.7793 21.6253 41.8384 21.4259C41.9492 21.0418 42.4072 20.4214 42.5106 20.5248C42.5918 20.5986 42.7543 21.6475 42.7543 22.1128L42.7617 22.5043L42.3481 22.2753C42.1265 22.1423 41.9271 22.0537 41.9049 22.0759C41.8384 22.135 41.7424 22.9031 41.7867 22.9548C41.8828 23.0508 42.8725 23.398 43.2049 23.4497L43.5373 23.494V28.7751V34.0563L43.3674 34.3296C43.2714 34.4773 43.0719 34.6767 42.9242 34.7727L42.6509 34.9426L34.1051 34.9648C29.4001 34.9722 25.5519 34.9648 25.5519 34.95Z" fill="#FFFDFC"/>
<path d="M20.7509 33.5835L20.4923 33.5392L20.4702 32.1432C20.4628 31.3677 20.4702 30.762 20.4923 30.7842C20.581 30.8728 21.615 33.5688 21.5781 33.6131C21.5264 33.6574 21.098 33.6426 20.7509 33.5835Z" fill="#FFFDFC"/>
<path d="M21.3196 31.8109L20.4554 30.1194V28.5388V26.9581L20.8247 26.6848C21.0315 26.5297 21.2457 26.3894 21.3048 26.3672C21.4525 26.3081 23.0184 29.5211 23.7053 31.2864C24.0008 32.0398 24.2519 32.6898 24.274 32.7341C24.3257 32.8671 22.7082 33.5023 22.3093 33.5023C22.2207 33.5023 21.9326 33 21.3196 31.8109Z" fill="#FFFDFC"/>
<path d="M23.9638 30.9171C23.5354 30.0677 22.9002 28.6496 22.5531 27.7632C22.2059 26.8769 21.9031 26.1309 21.8809 26.0939C21.7997 25.961 23.0627 25.54 24.1263 25.3479L24.3553 25.311L25.0791 26.7661C25.478 27.5638 26.0098 28.7382 26.2609 29.366L26.7189 30.5109L26.5638 30.7325C26.3643 31.0205 24.9093 32.4682 24.8132 32.4682C24.7763 32.4682 24.3922 31.7739 23.9638 30.9171Z" fill="#FFFDFC"/>
<path d="M26.416 28.8711C26.0984 28.2285 25.6331 27.1723 25.3746 26.5223L24.9093 25.3405L25.4706 25.3184C26.0763 25.2962 27.2507 25.4513 28.137 25.6729C28.4399 25.7542 28.691 25.8059 28.6984 25.7985C28.8313 25.6434 29.533 24.0849 29.4887 24.0406C29.4001 23.9593 27.7677 23.4718 26.9552 23.2872C26.3717 23.1616 25.995 23.1321 24.7763 23.1321C23.1292 23.1247 22.6269 23.1986 21.2826 23.6491C20.8616 23.7894 20.4997 23.9002 20.4849 23.9002C20.4702 23.9002 20.4554 22.6224 20.4554 21.0639C20.4554 18.2424 20.4554 18.235 20.6253 17.9839C20.7139 17.8509 20.9059 17.6589 21.0389 17.5703L21.29 17.4004H31.9557C43.5742 17.4004 42.7986 17.3708 43.2122 17.8214C43.4929 18.1242 43.5742 18.4418 43.5742 19.2248C43.5742 19.9117 43.5742 19.9191 43.4117 19.8674C43.1162 19.7714 42.3702 19.8157 42.0674 19.9412C41.2549 20.281 41.0407 20.6651 40.6271 22.4673C40.3464 23.6639 39.9328 24.9343 39.8146 24.9343C39.6964 24.9343 38.0567 21.3446 38.1453 21.256C38.1896 21.2043 39.9549 21.9651 40.4794 22.2531C40.5015 22.2679 40.568 22.0685 40.6271 21.8026L40.7453 21.3298L39.8515 20.8128C37.909 19.6753 36.6902 19.2322 35.5232 19.2248C34.6516 19.2174 34.046 19.402 33.2852 19.9117C31.6233 21.027 30.2052 23.0804 28.7648 26.4854C28.2774 27.645 27.3172 29.6245 27.1251 29.8683C26.9922 30.0308 26.9922 30.0308 26.416 28.8711Z" fill="#FFFDFC"/>
<path d="M36.705 26.6627C36.1806 26.5814 35.634 26.4706 35.3016 26.3672L34.9323 26.2564L34.4079 25.215C34.1198 24.6389 33.721 23.7525 33.5141 23.2429L33.1522 22.3122L33.5732 21.9134C33.8096 21.6918 34.2306 21.4111 34.5187 21.2708L35.0431 21.0196L35.8039 22.5338C36.4465 23.8264 37.5175 26.3303 37.5175 26.5519C37.5175 26.6922 37.1999 26.7365 36.705 26.6627Z" fill="#FFFDFC"/>
<path d="M37.3402 25.0303C36.6976 23.7451 35.597 21.1526 35.597 20.931C35.597 20.835 36.9709 20.9015 37.3697 21.0196C37.6209 21.0861 37.6652 21.16 38.2413 22.327C38.8765 23.627 39.5117 25.1633 39.5117 25.3923C39.5117 25.6729 38.5072 26.4854 38.1674 26.4854C38.1157 26.4854 37.739 25.828 37.3402 25.0303Z" fill="#FFFDFC"/>
<path d="M43.1605 22.6446C42.9463 22.5633 42.9242 22.4895 42.8282 21.3816C42.7543 20.5617 42.7543 20.4066 42.8429 20.3475C42.9759 20.2662 43.1531 20.2662 43.3821 20.3549L43.5742 20.4287V21.5736C43.5742 22.8145 43.5742 22.8145 43.1605 22.6446Z" fill="#FFFDFC"/>
</svg>

<svg width="64" height="64" fill="none" xmlns="http://www.w3.org/2000/svg"><circle cx="32" cy="32" r="32" fill="#E86C00"/><path d="M11.075 46.458c-1.367-.288-2.637-1.374-3.198-2.733-.281-.68-.377-1.19-.377-1.95 0-1.455.54-2.696 1.595-3.649 1.315-1.19 3.206-1.47 5.112-.753.51.192 1.359.694 1.47.864.051.081-.133.428-.724 1.374l-.79 1.27-.43-.221c-.856-.436-1.61-.444-2.222-.023-.805.554-.842 1.854-.067 2.371.133.096.355.17.488.17h.25V41.48h3.399V46.48l-.385.052c-.746.088-3.611.037-4.121-.074zM16.245 41.775v-4.801H21.416v2.363H18.978v1.256H20.677v2.364H18.978v1.255l1.204.015 1.197.022.022 1.167.022 1.16h-5.178v-4.801zM22.08 41.775v-4.801h2.327l.886 1.625c.488.894.916 1.625.946 1.625.03 0 .052-.724.052-1.603l-.015-1.61 1.484-.022 1.485-.015v9.602h-2.481l-.806-1.44-.812-1.44-.023 1.44-.014 1.44H22.08v-4.801zM33.307 46.465c-.96-.273-1.839-.857-2.408-1.61-.738-.982-1.026-1.847-1.019-3.08 0-.96.104-1.396.532-2.29.37-.76 1.24-1.647 1.987-2.016 1.787-.88 3.663-.562 5.089.864.702.702 1.137 1.5 1.322 2.422.392 1.98-.406 4.011-1.98 5.067-.79.525-1.314.687-2.304.724-.584.023-.93-.007-1.219-.08zm1.574-3.39c1.078-.458 1.07-2.098-.008-2.57-.857-.385-1.787.295-1.787 1.3 0 .967.938 1.64 1.795 1.27zM39.512 41.775v-4.801H42.518l.54 1.182c.295.65.56 1.181.583 1.181.022 0 .288-.531.59-1.181l.547-1.182H47.784v9.602h-3.028l-.007-2.342v-2.348l-.54 1.063-.539 1.064-.384-.731a34.033 34.033 0 01-.547-1.064l-.162-.332-.022 2.348-.015 2.342h-3.028v-4.801zM48.324 46.487c.014-.052.118-.48.228-.945a3069.35 3069.35 0 001.53-6.796c.206-.915.398-1.684.428-1.72.03-.03.93-.045 2.001-.037l1.95.022.06.258a972.958 972.958 0 001.02 4.801c.117.547.368 1.714.553 2.585.184.872.347 1.662.369 1.758l.037.163-1.381-.015-1.389-.022-.155-.739-.148-.738-1.004-.023-1.005-.022-.155.672a7.606 7.606 0 00-.155.783c0 .09-.236.104-1.41.104-1.101 0-1.404-.022-1.374-.089zm4.557-3.915c0-.192-.4-1.905-.443-1.905-.037 0-.148.465-.429 1.832-.03.155-.007.162.421.162.31 0 .45-.03.45-.089zM25.552 34.95c0-.015.251-.185.561-.377.739-.465 1.743-1.425 2.312-2.23.894-1.249 1.337-2.216 2.26-4.86.65-1.877.901-2.512 1.3-3.302.303-.598.864-1.536.923-1.536.126 0 1.574 3.28 1.485 3.368-.037.037-1.108-.392-2.06-.813-.237-.103-.436-.162-.458-.125-.111.177-.562 1.529-.532 1.595.014.052.472.259 1.019.458 3.974 1.507 6.234 1.5 7.682-.037.842-.901 1.314-2.201 1.566-4.299.066-.546.17-1.167.228-1.366.111-.384.57-1.005.673-.901.08.074.243 1.123.243 1.588l.008.391-.414-.229c-.221-.133-.42-.221-.443-.2-.067.06-.163.828-.118.88.096.096 1.086.443 1.418.495l.332.044v10.562l-.17.274a1.804 1.804 0 01-.443.443l-.273.17-8.546.022c-4.705.007-8.553 0-8.553-.015zM20.75 33.584l-.258-.045-.022-1.396c-.007-.775 0-1.381.022-1.359.089.089 1.123 2.785 1.086 2.83-.052.043-.48.029-.827-.03zM21.32 31.81l-.865-1.69v-3.161l.37-.274c.207-.155.42-.296.48-.318.148-.059 1.713 3.154 2.4 4.92.296.753.547 1.403.569 1.447.052.133-1.566.768-1.965.768-.088 0-.376-.502-.99-1.691zM23.964 30.917a44.564 44.564 0 01-1.41-3.154 58.63 58.63 0 00-.673-1.67c-.081-.132 1.182-.553 2.245-.745l.23-.037.723 1.455c.399.798.93 1.972 1.182 2.6l.458 1.145-.155.222c-.2.287-1.655 1.735-1.75 1.735-.038 0-.422-.694-.85-1.55z" fill="#FFFDFC"/><path d="M26.416 28.871a38.596 38.596 0 01-1.041-2.349l-.466-1.181.562-.023c.605-.022 1.78.133 2.666.355.303.081.554.133.561.126.133-.156.835-1.714.79-1.758-.088-.082-1.72-.57-2.533-.754-.583-.125-.96-.155-2.179-.155-1.647-.007-2.15.067-3.493.517-.421.14-.783.251-.798.251-.015 0-.03-1.278-.03-2.836 0-2.822 0-2.829.17-3.08.089-.133.28-.325.414-.414l.251-.17h10.666c11.618 0 10.843-.03 11.256.421.28.303.362.62.362 1.404 0 .687 0 .694-.162.642-.296-.096-1.042-.051-1.345.074-.812.34-1.026.724-1.44 2.526-.28 1.197-.694 2.467-.812 2.467-.119 0-1.758-3.59-1.67-3.678.045-.052 1.81.71 2.334.997.023.015.089-.184.148-.45l.118-.473-.893-.517c-1.943-1.138-3.162-1.58-4.329-1.588-.871-.008-1.477.177-2.238.687-1.662 1.115-3.08 3.168-4.52 6.573-.488 1.16-1.448 3.14-1.64 3.383-.133.163-.133.163-.709-.997z" fill="#FFFDFC"/><path d="M36.705 26.663c-.524-.082-1.071-.192-1.403-.296l-.37-.11-.524-1.042a33.574 33.574 0 01-.894-1.972l-.362-.93.421-.4c.237-.221.658-.502.946-.642l.524-.251.76 1.514c.644 1.292 1.715 3.796 1.715 4.018 0 .14-.318.184-.813.11zM37.34 25.03c-.642-1.285-1.743-3.877-1.743-4.099 0-.096 1.374-.03 1.773.089.25.066.295.14.871 1.307.636 1.3 1.27 2.836 1.27 3.065 0 .28-1.004 1.093-1.344 1.093-.051 0-.428-.657-.827-1.455zM43.16 22.645c-.214-.082-.236-.155-.332-1.263-.074-.82-.074-.975.015-1.035.133-.08.31-.08.54.008l.191.074v1.145c0 1.24 0 1.24-.413 1.07z" fill="#FFFDFC"/></svg>
